svgs/jetquotes.svg

<svg xmlns="http://www.w3.org/2000/svg" viewBox="0 0 192 192"><path fill="none" stroke="#000" stroke-width="12" d="M17.339 174.594c-.873-2.274.127-6.052 4.703-17.754C29.795 137.013 46.74 105 57.949 89.004c21.535-30.732 42.937-51.013 66.076-62.619 13.849-6.947 23.543-9.476 38.564-10.062 14.75-.576 15.064-.247 7.012 7.356-7.272 6.865-13.705 10.787-25.415 15.494-5.421 2.179-10.024 4.463-10.228 5.076-.281.842 2.399.975 10.975.544 6.74-.339 11.346-.22 11.346.294 0 .476-2.493 3.412-5.54 6.526-6.106 6.24-16.289 11.693-26.976 14.443-7.441 1.916-10.627 3.366-10.206 4.645.375 1.14 8.851 2.139 19.528 2.301 3.955.06 7.456.539 7.78 1.063 1.182 1.912-10.932 12.631-18.242 16.143-6.234 2.994-10.393 4.347-29.682 9.652-3.656 1.005-4.908 1.789-4.908 3.072 0 2.048 6.025 3.456 18.971 4.432l8.22.62-2.611 2.735c-7.693 8.062-20.33 13.421-39.097 16.58-5.736.966-11.863 2.373-13.616 3.126-4.311 1.853-8.785 6.659-25.453 27.341-7.806 9.686-14.719 17.774-15.361 17.974-.643.2-1.429-.316-1.747-1.146Z"/></svg>

<svg
    xmlns="http://www.w3.org/2000/svg"
    viewBox="0 0 192 192"
    id="vector">
    <path
        id="path"
        d="M 17.339 174.594 C 16.466 172.32 17.466 168.542 22.042 156.84 C 29.795 137.013 46.74 105 57.949 89.004 C 79.484 58.272 100.886 37.991 124.025 26.385 C 137.874 19.438 147.568 16.909 162.589 16.323 C 177.339 15.747 177.653 16.076 169.601 23.679 C 162.329 30.544 155.896 34.466 144.186 39.173 C 138.765 41.352 134.162 43.636 133.958 44.249 C 133.677 45.091 136.357 45.224 144.933 44.793 C 151.673 44.454 156.279 44.573 156.279 45.087 C 156.279 45.563 153.786 48.499 150.739 51.613 C 144.633 57.853 134.45 63.306 123.763 66.056 C 116.322 67.972 113.136 69.422 113.557 70.701 C 113.932 71.841 122.408 72.84 133.085 73.002 C 137.04 73.062 140.541 73.541 140.865 74.065 C 142.047 75.977 129.933 86.696 122.623 90.208 C 116.389 93.202 112.23 94.555 92.941 99.86 C 89.285 100.865 88.033 101.649 88.033 102.932 C 88.033 104.98 94.058 106.388 107.004 107.364 L 115.224 107.984 L 112.613 110.719 C 104.92 118.781 92.283 124.14 73.516 127.299 C 67.78 128.265 61.653 129.672 59.9 130.425 C 55.589 132.278 51.115 137.084 34.447 157.766 C 26.641 167.452 19.728 175.54 19.086 175.74 C 18.443 175.94 17.657 175.424 17.339 174.594 Z"
        fill="none"
        stroke="#000000"
        stroke-width="12"/>
</svg>
